!!!COM: Bach, Johann Sebastian
!!!CDT: 1685/3//-1750/7/28/
!!!OTL@@DE: Ich dank' dir, lieber Herre
!!!OTL@EN:  I thank Thee, dear Lord
!!!AGN: 4-Part Chorale
!!!SCT: BH 002
!!!SCT: BWV 347
**harm	**root	**kern	**kern	**kern	**kern
*	*Iorgan	*Iorgan	*Iorgan	*Iorgan	*Iorgan
!	!	!bass	!tenor	!alto	!sprno
*	*	*clefF4	*clefF4	*clefG2	*clefG2
*k[f#c#]	*k[f#c#]	*k[f#c#]	*k[f#c#]	*k[f#c#]	*k[f#c#]
*D:	*D:	*D:	*D:	*D:	*D:
*met(c)	*met(c)	*met(c)	*met(c)	*met(c)	*met(c)
*M4/4	*M4/4	*M4/4	*M4/4	*M4/4	*M4/4
*MM60	*MM60	*MM60	*MM60	*MM60	*MM60
*>[A,A,B]	*>[A,A,B]	*>[A,A,B]	*>[A,A,B]	*>[A,A,B]	*>[A,A,B]
*>A	*>A	*>A	*>A	*>A	*>A
I	4AA	8d	4f#	4a	4dd
.	.	8c#	.	.	.
=1	=1	=1	=1	=1	=1
vi	4FF#	4B	4f#	4b	4dd
Ib	4AA	4F#	8f#	4a	4dd
.	.	.	8e	.	.
IV	4DD	4G	8d	4b	4dd
.	.	.	8c#	.	.
Vb/V	4BB	4G#	4B	4b	4ee
=2	=2	=2	=2	=2	=2
v	4EE	4A	4.e	4a	4cc
V7/V	4BB	4E	.	4g#	4b
.	.	.	8d	.	.
V;	4EE;	4AA;	4c#y;	4e;	4a;
V	4EE	4A	4a	4cc#y	4ee
=3	=3	=3	=3	=3	=3
I	4AA	4d	4a	4dd	4ff#
V/V	4BB	4e	4g#	8cc#	4ee
.	.	.	.	8b	.
Ib	4AA	4f#	2f#	[2a	4dd
V7c/VI	8CC#	8e	.	.	8cc#
vi7b	8FF#	8d	.	.	8b
=4	=4	=4	=4	=4	=4
V	4EE	4e	4.e	4a]	4cc#
V7/V	4BB	4E	.	4g#	4b
.	.	.	8d	.	.
V;	4EE;	4A;	4c#;	4e;	4a;
=:|!	=:|!	=:|!	=:|!	=:|!	=:|!
*>B	*>B	*>B	*>B	*>B	*>B
iii	4CC#	4F#	4c#	8ff#	4aa
.	.	.	.	8ee	.
=5	=5	=5	=5	=5	=5
IVb	4DD	8B	8d	4dd	4gg
.	.	8c#	8e	.	.
I	4AA	4d	8f#	4dd	4ff#
.	.	.	8g	.	.
V	4EE	4A	4a	4cc#	4ee
Ib	8AA	8F#	4a	8dd	4dd
V7/IV	8AA	8D	.	8cc	.
=6	=6	=6	=6	=6	=6
IV	4DD	4G	4g	8b	8dd
.	.	.	.	8cc#y	8ee
Ib	4AA	8F#	4a	4dd	4ff#
.	.	8G	.	.	.
V;	4EE;	4A;	4a;	4cc#;	4ee;
viio/II	4AA#	4F#	4a	4dd#	4ff#
!!linebreak: 2
=7	=7	=7	=7	=7	=7
ii	8BB	4E	8b	8ee	4gg
ii7	8BB	.	4e	8dd	.
viiD7b/II	4AA#	4F#	.	4cc	4ff#
.	.	.	8d#	.	.
iib	8BB	8G	4e	8b	4ee
v	8EE	8c	.	8a	.
V/II	4FF#	4B	4f#	4b	4dd#
=8	=8	=8	=8	=8	=8
ii;	2.BB;	2.E;	2.g;	2.b;	2.ee;
iii	4CC#	4F#	4c#	8a	4a
.	.	.	.	8g	.
=9	=9	=9	=9	=9	=9
vi	4FF#	4B	4d	4f#	4dd
V7	8EE	8A	8c#	4g	4ee
iib	8BB	8G	8B	.	.
iii	4CC#	4F#	8A	4a	4ff#
.	.	.	8a	.	.
ii	8BB	4E	4g	8b	4gg
viiob	8GG#	.	.	8cc#	.
=10	=10	=10	=10	=10	=10
I	4AA	8D	8f#	2dd	4aa
.	.	8E	8g	.	.
I9b	8AA	8F#	8a	.	8gg
IV7	8DD	8G	8b	.	8ff#
V;	4EE;	4A;	4cc#;	4a;	4ee;
ii	4BB	4E	4b	4ee	4gg
=11	=11	=11	=11	=11	=11
vi	8FF#	8B	8b	8dd	4ff#
iiic	8CC#	8c#	8a	8cc#	.
ii7d	4BB	4d	8g	4b	4ee
.	.	.	8f#	.	.
Vb	4EE	8c#	4e	4a	4.aa
.	.	8A	.	.	.
vi7b	8FF#	[4d	8f#	8b	.
viioc	8GG#	.	8g	8cc#	8gg
=12	=12	=12	=12	=12	=12
I	4AA	8d]	4.a	2dd	8ff#
.	.	8c#	.	.	8ee
ii7c	4BB	4B	.	.	8dd
.	.	.	8g	.	8ee
Ic	8AA	8A	8f#	4dd	4ff#
IV7	8DD	8G	8b	.	.
V	4EE	4A	8e	4cc#	4ee
.	.	.	16a	.	.
.	.	.	16g	.	.
=13	=13	=13	=13	=13	=13
I;	2.AA;	2.D;	2.f#;	2.a;	2.dd;
==	==	==	==	==	==
*-	*-	*-	*-	*-	*-
!!chor2scor: -l 2 -s 0.6 -o %b.pmx
!!!YEC: Copyright 2001 by Craig Stuart Sapp
!!!license: GNU General Public License (http://www.gnu.org/copyleft/gpl.html)
!!!SMA: 371 Bach Chorales, edited by Ludwig Erk, C.F. Peters
!!!PDT: 1850, 1865
!!!ONB: Harmony and Root analysis done manually by Craig Sapp (not proofed yet)
